X: 43088
T: Wind Upon The Sea Of Barley
R: waltz
M: 3/4
K: Bminor
E3 F G2|E2 B2 F2|G4 F2-|FG FE DE|
Ee ed eG|F3 G A2|F3 d c2|Bc dc AD|
E3 F G2|E2 B2 F2|G4 F2-|FG FE DE|
Ee ed eg|f3 B d2|B3 A EF|D2 Ed dc|B6|

